;FLAVOR:Marlin
;TIME:8149
;Filament used: 6.49873m
;Layer height: 0.2
;MINX:81.2
;MINY:72.2
;MINZ:0.2
;MAXX:153.8
;MAXY:162.8
;MAXZ:12
;Generated with Cura_SteamEngine 5.3.0
M140 S60
M105
M190 S60
M104 S207
M105
M109 S207
M82 ;absolute extrusion mode
Ender 3 Custom Start G-code for CR touch

G92 E0 ; Reset Extruder

G28 ; Home all axes M420 S1

G29 P1 ; Do automated probing of the bed.

G1 Z2.0 F3000 ; Move Z Axis up little to prevent scratching of Heat Bed

G1 X5.1 Y20 Z0.3 F5000.0 ; Move to start position

G1 X5.1 Y200.0 Z0.3 F1500.0 E15 ; Draw the first line

G92 E0 ; Reset Extruder

G1 Z2.0 F3000 ; Move Z Axis up little to prevent scratching of Heat Bed

G1 X5 Y20 Z0.3 F5000.0 ; Move over to prevent blob squish
G92 E0
G92 E0
G1 F2100 E-1.5
;LAYER_COUNT:60
;LAYER:0
M107
;MESH:PixelSnakeTop.stl
G0 F8100 X117.879 Y107.494 Z0.2
;TYPE:WALL-INNER
G1 F2100 E0
G1 F1620 X116.433 Y107.454 E0.04811
G1 X115.136 Y107.274 E0.09166
G1 X113.737 Y106.92 E0.13966
G1 X112.513 Y106.462 E0.18313
G1 X111.275 Y105.84 E0.22921
G1 X110.074 Y105.053 E0.27697
G1 X109.008 Y104.174 E0.32292
G1 X108.092 Y103.232 E0.36662
G1 X107.209 Y102.097 E0.41445
G1 X106.525 Y100.984 E0.4579
G1 X105.917 Y99.697 E0.50524
G1 X105.471 Y98.403 E0.55077
G1 X105.17 Y97.063 E0.59645
G1 X105.018 Y95.69 E0.64239
G1 X105.018 Y94.31 E0.68829
G1 X105.17 Y92.937 E0.73424
G1 X105.471 Y91.597 E0.77992
G1 X105.921 Y90.291 E0.82586
G1 X106.508 Y89.046 E0.87164
G1 X107.209 Y87.903 E0.91624
G1 X108.092 Y86.768 E0.96407
G1 X109.008 Y85.826 E1.00777
G1 X110.074 Y84.947 E1.05372
G1 X111.275 Y84.16 E1.10148
G1 X112.453 Y83.565 E1.14537
G1 X113.8 Y83.061 E1.19321
G1 X115.115 Y82.729 E1.23832
G1 X116.433 Y82.546 E1.28258
G1 X117.879 Y82.506 E1.33069
G1 X119.25 Y82.624 E1.37646
G1 X120.601 Y82.891 E1.42226
G1 X121.917 Y83.306 E1.46816
G1 X123.173 Y83.862 E1.51384
G1 X124.366 Y84.556 E1.55975
G1 X125.415 Y85.324 E1.60299
G1 X126.483 Y86.309 E1.65131
G1 X127.346 Y87.299 E1.69499
G1 X128.151 Y88.453 E1.74179
G1 X128.804 Y89.662 E1.78749
G1 X129.321 Y90.937 E1.83325
G1 X129.7 Y92.275 E1.8795
G1 X129.923 Y93.616 E1.92472
G1 X130 Y95 E1.97082
G1 X129.926 Y96.352 E2.01586
G1 X129.706 Y97.697 E2.06119
G1 X129.321 Y99.063 E2.10839
G1 X128.813 Y100.317 E2.15339
G1 X128.168 Y101.518 E2.19873
G1 X127.371 Y102.67 E2.24532
G1 X126.483 Y103.691 E2.29033
G1 X125.415 Y104.676 E2.33865
G1 X124.366 Y105.444 E2.38189
G1 X123.114 Y106.168 E2.43
G1 X121.917 Y106.694 E2.47348
G1 X120.6 Y107.109 E2.51941
G1 X119.185 Y107.386 E2.56737
G1 X117.879 Y107.494 E2.61095
G1 F2100 E1.11095
G0 F8100 X116.407 Y107.633
G0 X116.408 Y116.301
G0 X100.646 Y151.198
G1 F2100 E2.61095
G1 F1620 X100.368 Y151.083 E2.62096
G1 X100.269 Y150.991 E2.62545
G1 X100.154 Y150.79 E2.63316
G1 X100.124 Y150.647 E2.63802
G1 X100.124 Y117.05 E3.75546
G1 X100.168 Y116.867 E3.76172
G1 X100.287 Y116.684 E3.76898
G1 X100.408 Y116.586 E3.77416
G1 X100.622 Y116.498 E3.78185
G1 X134.29 Y116.501 E4.90165
G1 X134.458 Y116.545 E4.90743
G1 X134.688 Y116.717 E4.91698
G1 X134.778 Y116.868 E4.92283
G1 X134.822 Y117.05 E4.92906
G1 X134.822 Y150.646 E6.04646
G1 X134.717 Y150.94 E6.05685
G1 X134.518 Y151.122 E6.06582
G1 X134.305 Y151.198 E6.07334
G1 X100.646 Y151.198 E7.19284
G1 F2100 E5.69284
G0 F8100 X134.623 Y150.998
G0 X134.621 Y162.219
G0 X153.4 Y162.4
G1 F2100 E7.19284
G1 F1620 X153.4 Y72.6 E10.1796
G1 X81.601 Y72.601 E12.56765
G1 X81.601 Y162.399 E15.55434
G1 X153.4 Y162.4 E17.94238
G0 F8100 X153.8 Y162.8
;TYPE:WALL-OUTER
G1 F1620 X153.8 Y72.2 E20.95575
G1 X81.201 Y72.201 E23.3704
G1 X81.201 Y162.799 E26.38371
G1 X153.8 Y162.8 E28.79836
G1 F2100 E27.29836
G0 F8100 X153.53 Y162.53
G0 X100.602 Y162.219
G0 X100.651 Y151.379
G0 X100.604 Y150.76
G1 F2100 E28.79836
G1 F1620 X100.523 Y150.659 E28.80266
G1 X100.523 Y117.082 E29.91944
G1 X100.587 Y116.95 E29.92432
G1 X100.678 Y116.902 E29.92774
G1 X134.246 Y116.899 E31.04422
G1 X134.395 Y116.994 E31.0501
G1 X134.424 Y117.098 E31.05369
G1 X134.423 Y150.614 E32.16843
G1 X134.36 Y150.745 E32.17327
G1 X134.258 Y150.796 E32.17706
G1 X100.688 Y150.796 E33.2936
G1 X100.604 Y150.76 E33.29664
G1 F2100 E31.79664
G0 F8100 X100.604 Y151.098
G0 X100.295 Y151.026
G0 X100.295 Y116.67
G0 X117.871 Y116.3
G0 X117.895 Y107.674
G0 X117.846 Y107.095
G1 F2100 E33.29664
G1 F1620 X116.488 Y107.058 E33.34183
G1 X115.191 Y106.878 E33.38538
G1 X113.877 Y106.545 E33.43046
G1 X112.653 Y106.087 E33.47393
G1 X111.436 Y105.472 E33.51928
G1 X110.345 Y104.757 E33.56267
G1 X109.295 Y103.895 E33.60785
G1 X108.379 Y102.953 E33.65155
G1 X107.55 Y101.887 E33.69647
G1 X106.86 Y100.764 E33.74031
G1 X106.283 Y99.537 E33.7854
G1 X105.859 Y98.305 E33.82874
G1 X105.564 Y96.992 E33.8735
G1 X105.418 Y95.668 E33.9178
G1 X105.419 Y94.322 E33.96257
G1 X105.566 Y92.997 E34.00691
G1 X105.859 Y91.695 E34.0513
G1 X106.283 Y90.463 E34.09463
G1 X106.86 Y89.236 E34.13973
G1 X107.55 Y88.113 E34.18357
G1 X108.379 Y87.047 E34.22848
G1 X109.295 Y86.105 E34.27219
G1 X110.345 Y85.243 E34.31737
G1 X111.455 Y84.517 E34.36148
G1 X112.653 Y83.913 E34.40611
G1 X113.877 Y83.455 E34.44957
G1 X115.191 Y83.122 E34.49466
G1 X116.488 Y82.942 E34.53821
G1 X117.846 Y82.905 E34.5834
G1 X119.174 Y83.016 E34.62772
G1 X120.46 Y83.267 E34.6713
G1 X121.756 Y83.672 E34.71646
G1 X122.973 Y84.208 E34.76069
G1 X124.112 Y84.867 E34.80446
G1 X125.196 Y85.661 E34.84915
G1 X126.181 Y86.572 E34.89377
G1 X127.058 Y87.579 E34.93819
G1 X127.804 Y88.652 E34.98165
G1 X128.442 Y89.832 E35.02627
G1 X128.943 Y91.067 E35.0706
G1 X129.31 Y92.363 E35.1154
G1 X129.526 Y93.67 E35.15946
G1 X129.6 Y95 E35.20376
G1 X129.524 Y96.351 E35.24877
G1 X129.31 Y97.637 E35.29213
G1 X128.943 Y98.933 E35.33693
G1 X128.445 Y100.161 E35.381
G1 X127.804 Y101.348 E35.42587
G1 X127.053 Y102.428 E35.46962
G1 X126.166 Y103.444 E35.51448
G1 X125.179 Y104.353 E35.55911
G1 X124.112 Y105.133 E35.60307
G1 X122.953 Y105.802 E35.64758
G1 X121.756 Y106.328 E35.69107
G1 X120.46 Y106.733 E35.73623
G1 X119.152 Y106.987 E35.78054
G1 X117.846 Y107.095 E35.82413
G1 F2100 E34.32413
G0 F8100 X117.87 Y107.393
G0 X119.272 Y107.556
G0 X153.2 Y107.556
G0 X153.04 Y162.04
;TYPE:SKIN
G1 F2100 E35.82413
G1 F1620 X81.962 Y162.038 E38.18819
G1 X81.961 Y72.961 E41.15091
G1 X153.04 Y72.96 E43.515
G1 X153.04 Y162.04 E46.47782
G1 F2100 E44.97782
G0 F8100 X153.038 Y162.299
G0 X100.379 Y162.219
G0 X100.651 Y151.379
G0 X100.251 Y151.437
G1 F2100 E46.47782
G1 F1620 X100.618 Y151.556 E46.49065
G1 X134.324 Y151.556 E47.61171
G1 X134.682 Y151.443 E47.6242
G1 X134.941 Y151.237 E47.63521
G1 X135.106 Y150.976 E47.64548
G1 X135.184 Y150.708 E47.65476
G1 X135.184 Y117.002 E48.77583
G1 X135.128 Y116.778 E48.78351
G1 X134.96 Y116.479 E48.79491
G1 X134.605 Y116.214 E48.80965
G1 X134.275 Y116.139 E48.8209
G1 X100.63 Y116.142 E49.93994
G1 X100.307 Y116.229 E49.95107
G1 X99.979 Y116.485 E49.96491
G1 X99.824 Y116.764 E49.97552
G1 X99.765 Y117.019 E49.98423
G1 X99.765 Y150.695 E51.1043
G1 X99.926 Y151.144 E51.12016
G1 X100.251 Y151.437 E51.13471
G1 F2100 E49.63471
G0 F8100 X100.381 Y151.21
G0 X100.295 Y116.67
G0 X117.894 Y116.3
G0 X117.895 Y107.674
G0 X117.91 Y107.852
G1 F2100 E51.13471
G1 F1620 X119.307 Y107.733 E51.18135
G1 X120.606 Y107.479 E51.22537
G1 X122.058 Y107.025 E51.27597
G1 X123.341 Y106.455 E51.32266
G1 X124.561 Y105.746 E51.3696
G1 X125.697 Y104.908 E51.41655
G1 X126.702 Y103.981 E51.46202
G1 X127.655 Y102.892 E51.51015
G1 X128.453 Y101.745 E51.55663
G1 X129.148 Y100.455 E51.60536
G1 X129.659 Y99.184 E51.65093
G1 X130.061 Y97.76 E51.70014
G1 X130.28 Y96.428 E51.74504
G1 X130.36 Y95.01 E51.79227
G1 X130.283 Y93.593 E51.83947
G1 X130.05 Y92.186 E51.88691
G1 X129.664 Y90.826 E51.93393
G1 X129.128 Y89.504 E51.98137
G1 X128.468 Y88.28 E52.02763
G1 X127.614 Y87.058 E52.07721
G1 X126.752 Y86.068 E52.12087
G1 X125.719 Y85.109 E52.16775
G1 X124.579 Y84.266 E52.21491
G1 X123.341 Y83.545 E52.26256
G1 X122.058 Y82.975 E52.30925
G1 X120.606 Y82.521 E52.35985
G1 X119.326 Y82.269 E52.40324
G1 X117.844 Y82.146 E52.45271
G1 X116.383 Y82.188 E52.50132
G1 X115.06 Y82.373 E52.54575
G1 X113.627 Y82.737 E52.59493
G1 X112.307 Y83.236 E52.64186
G1 X111.034 Y83.883 E52.68936
G1 X109.917 Y84.614 E52.73376
G1 X108.831 Y85.499 E52.78035
G1 X107.781 Y86.578 E52.83043
G1 X106.949 Y87.647 E52.87548
G1 X106.196 Y88.865 E52.92311
G1 X105.585 Y90.163 E52.97082
G1 X105.126 Y91.491 E53.01756
G1 X104.816 Y92.867 E53.06447
G1 X104.66 Y94.281 E53.11179
G1 X104.659 Y95.712 E53.15938
G1 X104.813 Y97.115 E53.20633
G1 X105.127 Y98.512 E53.25395
G1 X105.577 Y99.819 E53.29992
G1 X106.193 Y101.127 E53.34801
G1 X106.934 Y102.334 E53.39512
G1 X107.762 Y103.401 E53.44004
G1 X108.831 Y104.501 E53.49106
G1 X109.917 Y105.386 E53.53765
G1 X111.015 Y106.106 E53.58132
G1 X112.287 Y106.755 E53.62882
G1 X113.608 Y107.257 E53.67582
G1 X115.085 Y107.63 E53.72649
G1 X116.383 Y107.812 E53.77008
G1 X117.91 Y107.852 E53.82089
G1 F2100 E52.32089
G0 F8100 X117.893 Y107.594
G0 X120.528 Y106.962
G0 X121.827 Y106.556
G0 X123.072 Y106.01
G0 X124.249 Y105.33
G0 X125.345 Y104.525
G0 X126.345 Y103.604
G0 X127.238 Y102.579
G0 X128.013 Y101.462
G0 X128.66 Y100.267
G0 X129.171 Y99.006
G0 X129.542 Y97.698
G0 X129.605 Y97.319
G0 X130.103 Y93.596
G0 X130.103 Y72.8
G0 X152.356 Y73.16
G1 F2100 E53.82089
G1 F1620 X152.84 Y73.644 E53.84365
G0 F8100 X152.84 Y74.21
G1 F1620 X151.791 Y73.16 E53.89302
G0 F8100 X151.225 Y73.16
G1 F1620 X152.84 Y74.775 E53.96898
G0 F8100 X152.84 Y75.341
G1 F1620 X150.659 Y73.16 E54.07157
G0 F8100 X150.094 Y73.16
G1 F1620 X152.84 Y75.907 E54.20076
G0 F8100 X152.84 Y76.472
G1 F1620 X149.528 Y73.16 E54.35654
G0 F8100 X148.962 Y73.16
G1 F1620 X152.84 Y77.038 E54.53895
G0 F8100 X152.84 Y77.604
G1 F1620 X148.396 Y73.16 E54.74798
G0 F8100 X147.831 Y73.16
G1 F1620 X152.84 Y78.169 E54.98359
G0 F8100 X152.84 Y78.735
G1 F1620 X147.265 Y73.16 E55.24582
G0 F8100 X146.699 Y73.16
G1 F1620 X152.84 Y79.301 E55.53468
G0 F8100 X152.84 Y79.867
G1 F1620 X146.134 Y73.16 E55.85013
G0 F8100 X145.568 Y73.16
G1 F1620 X152.84 Y80.432 E56.19218
G0 F8100 X152.84 Y80.998
G1 F1620 X145.002 Y73.16 E56.56086
G0 F8100 X144.437 Y73.16
G1 F1620 X152.84 Y81.564 E56.95613
G0 F8100 X152.84 Y82.129
G1 F1620 X143.871 Y73.16 E57.37801
G0 F8100 X143.305 Y73.16
G1 F1620 X152.84 Y82.695 E57.82651
G0 F8100 X152.84 Y83.261
G1 F1620 X142.74 Y73.16 E58.3016
G0 F8100 X142.174 Y73.16
G1 F1620 X152.84 Y83.826 E58.8033
G0 F8100 X152.84 Y84.392
G1 F1620 X141.608 Y73.16 E59.33162
G0 F8100 X141.043 Y73.16
G1 F1620 X152.84 Y84.958 E59.88653
G0 F8100 X152.84 Y85.523
G1 F1620 X140.477 Y73.16 E60.46805
G0 F8100 X139.911 Y73.16
G1 F1620 X152.84 Y86.089 E61.07619
G0 F8100 X152.84 Y86.655
G1 F1620 X139.345 Y73.16 E61.71096
G0 F8100 X138.78 Y73.16
G1 F1620 X152.84 Y87.22 E62.3723
G0 F8100 X152.84 Y87.786
G1 F1620 X138.214 Y73.16 E63.06026
G0 F8100 X137.648 Y73.16
G1 F1620 X152.84 Y88.352 E63.77484
G0 F8100 X152.84 Y88.917
G1 F1620 X137.083 Y73.16 E64.516
G0 F8100 X136.517 Y73.16
G1 F1620 X152.84 Y89.483 E65.28379
G0 F8100 X152.84 Y90.049
G1 F1620 X135.951 Y73.16 E66.07819
G0 F8100 X135.386 Y73.16
G1 F1620 X152.84 Y90.615 E66.8992
G0 F8100 X152.84 Y91.18
G1 F1620 X134.82 Y73.16 E67.74681
G0 F8100 X134.254 Y73.16
G1 F1620 X152.84 Y91.746 E68.62103
G0 F8100 X152.84 Y92.312
G1 F1620 X133.689 Y73.16 E69.52186
G0 F8100 X133.123 Y73.16
G1 F1620 X152.84 Y92.877 E70.44929
G0 F8100 X152.84 Y93.443
G1 F1620 X132.557 Y73.16 E71.40334
G0 F8100 X131.992 Y73.16
G1 F1620 X152.84 Y94.009 E72.38399
G0 F8100 X152.84 Y94.574
G1 F1620 X131.426 Y73.16 E73.39124
G0 F8100 X130.86 Y73.16
G1 F1620 X152.84 Y95.14 E74.42511
G0 F8100 X152.84 Y95.706
G1 F1620 X130.295 Y73.16 E75.48558
G0 F8100 X129.729 Y73.16
G1 F1620 X152.84 Y96.271 E76.57265
G0 F8100 X152.84 Y96.837
G1 F1620 X129.163 Y73.16 E77.68635
G0 F8100 X128.597 Y73.16
G1 F1620 X152.84 Y97.403 E78.82666
G0 F8100 X152.84 Y97.968
G1 F1620 X128.032 Y73.16 E79.99355
G0 F8100 X127.466 Y73.16
G1 F1620 X152.84 Y98.534 E81.18707
G0 F8100 X152.84 Y99.1
G1 F1620 X126.9 Y73.16 E82.40721
G0 F8100 X126.335 Y73.16
G1 F1620 X152.84 Y99.665 E83.65392
G0 F8100 X152.84 Y100.231
G1 F1620 X125.769 Y73.16 E84.92726
G0 F8100 X125.203 Y73.16
G1 F1620 X152.84 Y100.797 E86.22722
G0 F8100 X152.84 Y101.363
G1 F1620 X124.638 Y73.16 E87.55378
G0 F8100 X124.072 Y73.16
G1 F1620 X152.84 Y101.928 E88.90694
G0 F8100 X152.84 Y102.494
G1 F1620 X123.506 Y73.16 E90.28672
G0 F8100 X122.941 Y73.16
G1 F1620 X152.84 Y103.06 E91.6931
G0 F8100 X152.84 Y103.625
G1 F1620 X122.375 Y73.16 E93.12608
G0 F8100 X121.809 Y73.16
G1 F1620 X152.84 Y104.191 E94.58568
G0 F8100 X152.84 Y104.757
G1 F1620 X121.244 Y73.16 E96.07188
G0 F8100 X120.678 Y73.16
G1 F1620 X152.84 Y105.322 E97.58469
G0 F8100 X152.84 Y105.888
G1 F1620 X120.112 Y73.16 E99.12411
G0 F8100 X119.547 Y73.16
G1 F1620 X152.84 Y106.454 E100.69013
G0 F8100 X152.84 Y107.019
G1 F1620 X118.981 Y73.16 E102.28276
G0 F8100 X118.415 Y73.16
G1 F1620 X152.84 Y107.585 E103.902
G0 F8100 X152.84 Y108.151
G1 F1620 X117.849 Y73.16 E105.54787
G0 F8100 X117.284 Y73.161
G1 F1620 X152.84 Y108.716 E107.2203
G0 F8100 X152.84 Y109.282
G1 F1620 X116.719 Y73.161 E108.91932
G0 F8100 X116.153 Y73.161
G1 F1620 X152.84 Y109.848 E110.64496
G0 F8100 X152.84 Y110.414
G1 F1620 X115.587 Y73.161 E112.39723
G0 F8100 X115.022 Y73.161
G1 F1620 X152.84 Y110.979 E114.17607
G0 F8100 X152.84 Y111.545
G1 F1620 X114.456 Y73.161 E115.98154
G0 F8100 X113.89 Y73.161
G1 F1620 X125.23 Y84.501 E116.51493
G0 F8100 X125.595 Y85.349
G0 X123.431 Y83.896
G0 X123.663 Y83.499
G1 F1620 X113.325 Y73.161 E117.0012
G0 F8100 X112.759 Y73.161
G1 F1620 X122.592 Y82.994 E117.46372
G0 F8100 X121.681 Y82.648
G1 F1620 X112.193 Y73.161 E117.90998
G0 F8100 X111.628 Y73.161
G1 F1620 X120.857 Y82.391 E118.34411
G0 F8100 X120.123 Y82.222
G1 F1620 X111.062 Y73.161 E118.77031
G0 F8100 X110.496 Y73.161
G1 F1620 X119.419 Y82.083 E119.19
G0 F8100 X118.794 Y82.025
G1 F1620 X109.931 Y73.161 E119.60691
G0 F8100 X109.365 Y73.161
G1 F1620 X118.176 Y81.972 E120.02135
G0 F8100 X117.591 Y81.953
G1 F1620 X108.799 Y73.161 E120.4349
G0 F8100 X108.234 Y73.161
G1 F1620 X117.042 Y81.969 E120.8492
G0 F8100 X116.493 Y81.986
G1 F1620 X107.668 Y73.161 E121.2643
G0 F8100 X107.102 Y73.161
G1 F1620 X115.983 Y82.042 E121.68204
G0 F8100 X115.486 Y82.11
G1 F1620 X106.536 Y73.161 E122.10299
G0 F8100 X105.971 Y73.161
G1 F1620 X114.991 Y82.182 E122.52729
G0 F8100 X114.541 Y82.297
G1 F1620 X105.405 Y73.161 E122.95702
G0 F8100 X104.839 Y73.161
G1 F1620 X114.09 Y82.411 E123.39213
G0 F8100 X113.639 Y82.526
G1 F1620 X104.274 Y73.161 E123.83264
G0 F8100 X103.708 Y73.161
G1 F1620 X113.222 Y82.675 E124.28014
G0 F8100 X112.812 Y82.831
G1 F1620 X103.142 Y73.161 E124.73499
G0 F8100 X102.577 Y73.161
G1 F1620 X112.401 Y82.986 E125.19711
G0 F8100 X112.012 Y83.162
G1 F1620 X102.011 Y73.161 E125.66752
G0 F8100 X101.445 Y73.161
G1 F1620 X111.636 Y83.352 E126.14688
G0 F8100 X111.261 Y83.542
G1 F1620 X100.88 Y73.161 E126.63517
G0 F8100 X100.314 Y73.161
G1 F1620 X110.89 Y83.737 E127.13263
G0 F8100 X110.549 Y83.961
G1 F1620 X99.748 Y73.161 E127.64065
G0 F8100 X99.183 Y73.161
G1 F1620 X110.206 Y84.185 E128.15916
G0 F8100 X109.865 Y84.409
G1 F1620 X98.617 Y73.161 E128.68823
G0 F8100 X98.051 Y73.161
G1 F1620 X109.547 Y84.656 E129.22895
G0 F8100 X109.235 Y84.91
G1 F1620 X97.485 Y73.161 E129.78161
G0 F8100 X96.92 Y73.161
G1 F1620 X108.923 Y85.164 E130.34619
G0 F8100 X108.622 Y85.429
G1 F1620 X96.354 Y73.161 E130.92324
G0 F8100 X95.788 Y73.161
G1 F1620 X108.343 Y85.716 E131.51379
G0 F8100 X108.064 Y86.002
G1 F1620 X95.223 Y73.161 E132.11779
G0 F8100 X94.657 Y73.161
G1 F1620 X107.785 Y86.289 E132.73529
