;FLAVOR:Marlin
;TIME:15362
;Filament used: 12.4312m
;Layer height: 0.2
;MINX:89.249
;MINY:71.335
;MINZ:0.2
;MAXX:162.071
;MAXY:163.665
;MAXZ:42
;Generated with Cura_SteamEngine 5.3.0
M140 S60
M105
M190 S60
M104 S207
M105
M109 S207
M82 ;absolute extrusion mode
Ender 3 Custom Start G-code for CR touch

G92 E0 ; Reset Extruder

G28 ; Home all axes M420 S1

G29 P1 ; Do automated probing of the bed.

G1 Z2.0 F3000 ; Move Z Axis up little to prevent scratching of Heat Bed

G1 X5.1 Y20 Z0.3 F5000.0 ; Move to start position

G1 X5.1 Y200.0 Z0.3 F1500.0 E15 ; Draw the first line

G92 E0 ; Reset Extruder

G1 Z2.0 F3000 ; Move Z Axis up little to prevent scratching of Heat Bed

G1 X5 Y20 Z0.3 F5000.0 ; Move over to prevent blob squish
G92 E0
G92 E0
G1 F2100 E-1.5
;LAYER_COUNT:210
;LAYER:0
M107
;MESH:Body1.stl
G0 F8100 X90.503 Y162.399 Z0.2
;TYPE:WALL-INNER
G1 F2100 E0
G1 F1620 X161.671 Y162.399 E2.36706
G1 X161.671 Y72.6 E5.35378
G1 X90.503 Y72.6 E7.72084
G1 X90.503 Y162.399 E10.70757
G0 F8100 X90.103 Y162.799
;TYPE:WALL-OUTER
G1 F1620 X162.071 Y162.799 E13.10123
G1 X162.071 Y72.2 E16.11457
G1 X90.103 Y72.2 E18.50823
G1 X90.103 Y162.799 E21.52157
G0 F8100 X90.372 Y162.53
G0 X90.603 Y162.039
G0 X90.863 Y162.039
;TYPE:SKIN
G1 F1620 X90.863 Y72.96 E24.48435
G1 X161.311 Y72.96 E26.82746
G1 X161.311 Y162.039 E29.79024
G1 X90.863 Y162.039 E32.13335
G0 F8100 X91.127 Y161.838
G1 F1620 X91.062 Y161.773 E32.13641
G0 F8100 X91.062 Y161.207
G1 F1620 X91.693 Y161.838 E32.16609
G0 F8100 X92.259 Y161.838
G1 F1620 X91.062 Y160.641 E32.22239
G0 F8100 X91.062 Y160.076
G1 F1620 X92.824 Y161.838 E32.30527
G0 F8100 X93.39 Y161.838
G1 F1620 X91.062 Y159.51 E32.41477
G0 F8100 X91.062 Y158.944
G1 F1620 X93.956 Y161.838 E32.5509
G0 F8100 X94.521 Y161.838
G1 F1620 X91.062 Y158.379 E32.7136
G0 F8100 X91.062 Y157.813
G1 F1620 X95.087 Y161.838 E32.90292
G0 F8100 X95.653 Y161.838
G1 F1620 X91.062 Y157.247 E33.11887
G0 F8100 X91.062 Y156.682
G1 F1620 X96.218 Y161.838 E33.36139
G0 F8100 X96.784 Y161.838
G1 F1620 X91.062 Y156.116 E33.63053
G0 F8100 X91.062 Y155.55
G1 F1620 X97.35 Y161.838 E33.9263
G0 F8100 X97.915 Y161.838
G1 F1620 X91.062 Y154.985 E34.24865
G0 F8100 X91.062 Y154.419
G1 F1620 X98.481 Y161.838 E34.59761
G0 F8100 X99.047 Y161.838
G1 F1620 X91.062 Y153.853 E34.9732
G0 F8100 X91.062 Y153.288
G1 F1620 X99.612 Y161.838 E35.37537
G0 F8100 X100.178 Y161.838
G1 F1620 X91.062 Y152.722 E35.80416
G0 F8100 X91.062 Y152.156
G1 F1620 X100.744 Y161.838 E36.25957
G0 F8100 X101.31 Y161.838
G1 F1620 X91.062 Y151.59 E36.7416
G0 F8100 X91.062 Y151.025
G1 F1620 X101.875 Y161.838 E37.25021
G0 F8100 X102.441 Y161.838
G1 F1620 X91.062 Y150.459 E37.78545
G0 F8100 X91.062 Y149.893
G1 F1620 X103.007 Y161.838 E38.3473
G0 F8100 X103.572 Y161.838
G1 F1620 X91.062 Y149.328 E38.93574
G0 F8100 X91.062 Y148.762
G1 F1620 X104.138 Y161.838 E39.55079
G0 F8100 X104.704 Y161.838
G1 F1620 X91.062 Y148.196 E40.19247
G0 F8100 X91.062 Y147.631
G1 F1620 X105.269 Y161.838 E40.86072
G0 F8100 X105.835 Y161.838
G1 F1620 X91.062 Y147.065 E41.5556
G0 F8100 X91.062 Y146.499
G1 F1620 X106.401 Y161.838 E42.2771
G0 F8100 X106.966 Y161.838
G1 F1620 X91.062 Y145.934 E43.02517
G0 F8100 X91.062 Y145.368
G1 F1620 X107.532 Y161.838 E43.79987
G0 F8100 X108.098 Y161.838
G1 F1620 X91.062 Y144.802 E44.60119
G0 F8100 X91.062 Y144.237
G1 F1620 X108.663 Y161.838 E45.42909
G0 F8100 X109.229 Y161.838
G1 F1620 X91.062 Y143.671 E46.28361
G0 F8100 X91.062 Y143.105
G1 F1620 X109.795 Y161.838 E47.16475
G0 F8100 X110.36 Y161.838
G1 F1620 X91.062 Y142.539 E48.0725
G0 F8100 X91.062 Y141.974
G1 F1620 X110.926 Y161.838 E49.00684
G0 F8100 X111.492 Y161.838
G1 F1620 X91.062 Y141.408 E49.9678
G0 F8100 X91.062 Y140.842
G1 F1620 X112.058 Y161.838 E50.95539
G0 F8100 X112.623 Y161.838
G1 F1620 X91.062 Y140.277 E51.96955
G0 F8100 X91.062 Y139.711
G1 F1620 X113.189 Y161.838 E53.01034
G0 F8100 X113.755 Y161.838
G1 F1620 X91.062 Y139.145 E54.07775
G0 F8100 X91.062 Y138.58
G1 F1620 X114.32 Y161.838 E55.17173
G0 F8100 X114.886 Y161.838
G1 F1620 X91.062 Y138.014 E56.29234
G0 F8100 X91.062 Y137.448
G1 F1620 X115.452 Y161.838 E57.43957
G0 F8100 X116.017 Y161.838
G1 F1620 X91.062 Y136.883 E58.61338
G0 F8100 X91.062 Y136.317
G1 F1620 X116.583 Y161.838 E59.81381
G0 F8100 X117.149 Y161.838
G1 F1620 X91.062 Y135.751 E61.04086
G0 F8100 X91.062 Y135.186
G1 F1620 X117.714 Y161.838 E62.29449
G0 F8100 X118.28 Y161.838
G1 F1620 X91.062 Y134.62 E63.57474
G0 F8100 X91.062 Y134.054
G1 F1620 X118.846 Y161.838 E64.88161
G0 F8100 X119.411 Y161.838
G1 F1620 X91.062 Y133.489 E66.21506
G0 F8100 X91.062 Y132.923
G1 F1620 X119.977 Y161.838 E67.57514
G0 F8100 X120.543 Y161.838
G1 F1620 X91.062 Y132.357 E68.96183
G0 F8100 X91.062 Y131.791
G1 F1620 X121.109 Y161.838 E70.37515
G0 F8100 X121.674 Y161.838
G1 F1620 X91.062 Y131.226 E71.81505
G0 F8100 X91.062 Y130.66
G1 F1620 X122.24 Y161.838 E73.28156
G0 F8100 X122.806 Y161.838
G1 F1620 X91.062 Y130.094 E74.7747
G0 F8100 X91.062 Y129.529
G1 F1620 X123.371 Y161.838 E76.29442
G0 F8100 X123.937 Y161.838
G1 F1620 X91.062 Y128.963 E77.84076
G0 F8100 X91.062 Y128.397
G1 F1620 X124.503 Y161.838 E79.41372
G0 F8100 X125.068 Y161.838
G1 F1620 X91.062 Y127.832 E81.01326
G0 F8100 X91.062 Y127.266
G1 F1620 X125.634 Y161.838 E82.63942
G0 F8100 X126.2 Y161.838
G1 F1620 X91.062 Y126.7 E84.2922
G0 F8100 X91.062 Y126.135
G1 F1620 X126.765 Y161.838 E85.97156
G0 F8100 X127.331 Y161.838
G1 F1620 X91.062 Y125.569 E87.67755
G0 F8100 X91.062 Y125.003
G1 F1620 X127.897 Y161.838 E89.41015
G0 F8100 X128.462 Y161.838
G1 F1620 X91.062 Y124.438 E91.16933
G0 F8100 X91.062 Y123.872
G1 F1620 X129.028 Y161.838 E92.95514
G0 F8100 X129.594 Y161.838
G1 F1620 X91.062 Y123.306 E94.76756
G0 F8100 X91.062 Y122.741
G1 F1620 X130.159 Y161.838 E96.60657
G0 F8100 X130.725 Y161.838
G1 F1620 X91.062 Y122.175 E98.47219
G0 F8100 X91.062 Y121.609
G1 F1620 X131.291 Y161.838 E100.36444
G0 F8100 X131.857 Y161.838
G1 F1620 X91.062 Y121.043 E102.28331
G0 F8100 X91.062 Y120.478
G1 F1620 X132.422 Y161.838 E104.22876
G0 F8100 X132.988 Y161.838
G1 F1620 X91.062 Y119.912 E106.20083
G0 F8100 X91.062 Y119.346
G1 F1620 X133.554 Y161.838 E108.19953
G0 F8100 X134.119 Y161.838
G1 F1620 X91.062 Y118.781 E110.2248
G0 F8100 X91.062 Y118.215
G1 F1620 X134.685 Y161.838 E112.27669
G0 F8100 X135.251 Y161.838
G1 F1620 X91.062 Y117.649 E114.3552
G0 F8100 X91.062 Y117.084
G1 F1620 X135.816 Y161.838 E116.46029
G0 F8100 X136.382 Y161.838
G1 F1620 X91.062 Y116.518 E118.59201
G0 F8100 X91.062 Y115.952
G1 F1620 X136.948 Y161.838 E120.75034
G0 F8100 X137.513 Y161.838
G1 F1620 X91.062 Y115.387 E122.93526
G0 F8100 X91.062 Y114.821
G1 F1620 X138.079 Y161.838 E125.14679
G0 F8100 X138.645 Y161.838
G1 F1620 X91.062 Y114.255 E127.38495
G0 F8100 X91.062 Y113.69
G1 F1620 X139.21 Y161.838 E129.64968
G0 F8100 X139.776 Y161.838
G1 F1620 X91.062 Y113.124 E131.94104
G0 F8100 X91.062 Y112.558
G1 F1620 X140.342 Y161.838 E134.25902
G0 F8100 X140.907 Y161.838
G1 F1620 X91.062 Y111.992 E136.6036
G0 F8100 X91.062 Y111.427
G1 F1620 X141.473 Y161.838 E138.97478
G0 F8100 X142.039 Y161.838
G1 F1620 X91.062 Y110.861 E141.37258
G0 F8100 X91.062 Y110.295
G1 F1620 X142.605 Y161.838 E143.79701
G0 F8100 X143.17 Y161.838
G1 F1620 X91.062 Y109.73 E146.24801
G0 F8100 X91.062 Y109.164
G1 F1620 X143.736 Y161.838 E148.72563
G0 F8100 X144.302 Y161.838
G1 F1620 X91.062 Y108.598 E151.22988
G0 F8100 X91.062 Y108.033
G1 F1620 X144.867 Y161.838 E153.7607
G0 F8100 X145.433 Y161.838
G1 F1620 X91.062 Y107.467 E156.31814
G0 F8100 X91.062 Y106.901
G1 F1620 X145.999 Y161.838 E158.90221
G0 F8100 X146.564 Y161.838
G1 F1620 X91.062 Y106.336 E161.51286
G0 F8100 X91.062 Y105.77
G1 F1620 X147.13 Y161.838 E164.15012
G0 F8100 X147.696 Y161.838
G1 F1620 X91.062 Y105.204 E166.81401
G0 F8100 X91.062 Y104.639
G1 F1620 X148.261 Y161.838 E169.50448
G0 F8100 X148.827 Y161.838
G1 F1620 X91.062 Y104.073 E172.22157
G0 F8100 X91.062 Y103.507
G1 F1620 X149.393 Y161.838 E174.96528
G0 F8100 X149.958 Y161.838
G1 F1620 X91.062 Y102.942 E177.73557
G0 F8100 X91.062 Y102.376
G1 F1620 X150.524 Y161.838 E180.53248
G0 F8100 X151.09 Y161.838
G1 F1620 X91.062 Y101.81 E183.35601
G0 F8100 X91.062 Y101.244
G1 F1620 X151.656 Y161.838 E186.20617
G0 F8100 X152.221 Y161.838
G1 F1620 X91.062 Y100.679 E189.0829
G0 F8100 X91.062 Y100.113
G1 F1620 X152.787 Y161.838 E191.98625
G0 F8100 X153.353 Y161.838
G1 F1620 X91.062 Y99.547 E194.91623
G0 F8100 X91.062 Y98.982
G1 F1620 X153.918 Y161.838 E197.87278
G0 F8100 X154.484 Y161.838
G1 F1620 X91.062 Y98.416 E200.85596
G0 F8100 X91.062 Y97.85
G1 F1620 X155.05 Y161.838 E203.86576
G0 F8100 X155.615 Y161.838
G1 F1620 X91.062 Y97.285 E206.90213
G0 F8100 X91.062 Y96.719
G1 F1620 X156.181 Y161.838 E209.96513
G0 F8100 X156.747 Y161.838
G1 F1620 X91.062 Y96.153 E213.05475
G0 F8100 X91.062 Y95.588
G1 F1620 X157.312 Y161.838 E216.17095
G0 F8100 X157.878 Y161.838
G1 F1620 X91.062 Y95.022 E219.31377
G0 F8100 X91.062 Y94.456
G1 F1620 X158.444 Y161.838 E222.48321
G0 F8100 X159.009 Y161.838
G1 F1620 X91.062 Y93.891 E225.67923
G0 F8100 X91.062 Y93.325
G1 F1620 X159.575 Y161.838 E228.90187
G0 F8100 X160.141 Y161.838
G1 F1620 X91.062 Y92.759 E232.15114
G0 F8100 X91.062 Y92.193
G1 F1620 X160.706 Y161.838 E235.427
G0 F8100 X161.111 Y161.677
G1 F1620 X91.062 Y91.628 E238.72189
G0 F8100 X91.062 Y91.062
G1 F1620 X161.111 Y161.111 E242.01678
G0 F8100 X161.111 Y160.545
G1 F1620 X91.062 Y90.496 E245.31167
G0 F8100 X91.062 Y89.931
G1 F1620 X161.111 Y159.98 E248.60656
G0 F8100 X161.111 Y159.414
G1 F1620 X91.062 Y89.365 E251.90145
G0 F8100 X91.062 Y88.799
G1 F1620 X161.111 Y158.848 E255.19634
G0 F8100 X161.111 Y158.283
G1 F1620 X91.062 Y88.234 E258.49123
G0 F8100 X91.062 Y87.668
G1 F1620 X161.111 Y157.717 E261.78612
G0 F8100 X161.111 Y157.151
G1 F1620 X91.062 Y87.102 E265.08101
G0 F8100 X91.062 Y86.537
G1 F1620 X161.111 Y156.585 E268.37588
G0 F8100 X161.111 Y156.02
G1 F1620 X91.062 Y85.971 E271.67077
G0 F8100 X91.062 Y85.405
G1 F1620 X161.111 Y155.454 E274.96566
G0 F8100 X161.111 Y154.888
G1 F1620 X91.062 Y84.84 E278.26053
G0 F8100 X91.062 Y84.274
G1 F1620 X161.111 Y154.323 E281.55542
G0 F8100 X161.111 Y153.757
G1 F1620 X91.062 Y83.708 E284.85031
G0 F8100 X91.062 Y83.143
G1 F1620 X161.111 Y153.191 E288.14517
G0 F8100 X161.111 Y152.626
G1 F1620 X91.062 Y82.577 E291.44006
G0 F8100 X91.062 Y82.011
G1 F1620 X161.111 Y152.06 E294.73495
G0 F8100 X161.111 Y151.494
G1 F1620 X91.062 Y81.445 E298.02984
G0 F8100 X91.062 Y80.88
G1 F1620 X161.111 Y150.929 E301.32473
G0 F8100 X161.111 Y150.363
G1 F1620 X91.062 Y80.314 E304.61962
G0 F8100 X91.062 Y79.748
G1 F1620 X161.111 Y149.797 E307.91451
G0 F8100 X161.111 Y149.232
G1 F1620 X91.062 Y79.183 E311.2094
G0 F8100 X91.062 Y78.617
G1 F1620 X161.111 Y148.666 E314.50429
G0 F8100 X161.111 Y148.1
G1 F1620 X91.062 Y78.051 E317.79919
G0 F8100 X91.062 Y77.486
G1 F1620 X161.111 Y147.535 E321.09408
G0 F8100 X161.111 Y146.969
G1 F1620 X91.062 Y76.92 E324.38897
G0 F8100 X91.062 Y76.354
G1 F1620 X161.111 Y146.403 E327.68386
G0 F8100 X161.111 Y145.837
G1 F1620 X91.062 Y75.789 E330.97872
G0 F8100 X91.062 Y75.223
G1 F1620 X161.111 Y145.272 E334.27361
G0 F8100 X161.111 Y144.706
G1 F1620 X91.062 Y74.657 E337.5685
G0 F8100 X91.062 Y74.092
G1 F1620 X161.111 Y144.14 E340.86337
G0 F8100 X161.111 Y143.575
G1 F1620 X91.062 Y73.526 E344.15826
G0 F8100 X91.262 Y73.16
G1 F1620 X161.111 Y143.009 E347.44374
G0 F8100 X161.111 Y142.443
G1 F1620 X91.827 Y73.16 E350.70263
G0 F8100 X92.393 Y73.16
G1 F1620 X161.111 Y141.878 E353.93491
G0 F8100 X161.111 Y141.312
G1 F1620 X92.959 Y73.16 E357.14057
G0 F8100 X93.524 Y73.16
G1 F1620 X161.111 Y140.746 E360.31963
G0 F8100 X161.111 Y140.181
G1 F1620 X94.09 Y73.16 E363.4721
G0 F8100 X94.656 Y73.16
G1 F1620 X161.111 Y139.615 E366.59793
G0 F8100 X161.111 Y139.049
G1 F1620 X95.221 Y73.16 E369.69717
G0 F8100 X95.787 Y73.16
G1 F1620 X161.111 Y138.484 E372.76982
G0 F8100 X161.111 Y137.918
G1 F1620 X96.353 Y73.16 E375.81583
G0 F8100 X96.918 Y73.16
G1 F1620 X161.111 Y137.352 E378.83525
G0 F8100 X161.111 Y136.786
G1 F1620 X97.484 Y73.16 E381.82805
G0 F8100 X98.05 Y73.16
G1 F1620 X161.111 Y136.221 E384.79424
G0 F8100 X161.111 Y135.655
G1 F1620 X98.615 Y73.16 E387.73384
G0 F8100 X99.181 Y73.16
G1 F1620 X161.111 Y135.089 E390.64681
G0 F8100 X161.111 Y134.524
G1 F1620 X99.747 Y73.16 E393.53319
G0 F8100 X100.312 Y73.16
G1 F1620 X161.111 Y133.958 E396.39296
G0 F8100 X161.111 Y133.392
G1 F1620 X100.878 Y73.16 E399.22612
G0 F8100 X101.444 Y73.16
G1 F1620 X161.111 Y132.827 E402.03267
G0 F8100 X161.111 Y132.261
G1 F1620 X102.01 Y73.16 E404.8126
G0 F8100 X102.575 Y73.16
G1 F1620 X161.111 Y131.695 E407.56593
G0 F8100 X161.111 Y131.13
G1 F1620 X103.141 Y73.16 E410.29266
G0 F8100 X103.707 Y73.16
G1 F1620 X161.111 Y130.564 E412.99277
G0 F8100 X161.111 Y129.998
G1 F1620 X104.272 Y73.16 E415.66628
G0 F8100 X104.838 Y73.16
G1 F1620 X161.111 Y129.433 E418.31319
G0 F8100 X161.111 Y128.867
G1 F1620 X105.404 Y73.16 E420.93347
G0 F8100 X105.969 Y73.16
G1 F1620 X161.111 Y128.301 E423.52716
G0 F8100 X161.111 Y127.736
G1 F1620 X106.535 Y73.16 E426.09425
G0 F8100 X107.101 Y73.16
G1 F1620 X161.111 Y127.17 E428.63471
G0 F8100 X161.111 Y126.604
G1 F1620 X107.666 Y73.16 E431.14858
G0 F8100 X108.232 Y73.16
G1 F1620 X161.111 Y126.038 E433.63582
G0 F8100 X161.111 Y125.473
G1 F1620 X108.798 Y73.16 E436.09646
G0 F8100 X109.363 Y73.16
G1 F1620 X161.111 Y124.907 E438.53051
G0 F8100 X161.111 Y124.341
G1 F1620 X109.929 Y73.16 E440.93793
G0 F8100 X110.495 Y73.16
G1 F1620 X161.111 Y123.776 E443.31875
G0 F8100 X161.111 Y123.21
G1 F1620 X111.061 Y73.16 E445.67295
G0 F8100 X111.626 Y73.16
G1 F1620 X161.111 Y122.644 E448.00055
G0 F8100 X161.111 Y122.079
G1 F1620 X112.192 Y73.16 E450.30155
G0 F8100 X112.758 Y73.16
G1 F1620 X161.111 Y121.513 E452.57592
G0 F8100 X161.111 Y120.947
G1 F1620 X113.323 Y73.16 E454.8237
G0 F8100 X113.889 Y73.16
G1 F1620 X161.111 Y120.382 E457.04488
G0 F8100 X161.111 Y119.816
G1 F1620 X114.455 Y73.16 E459.23943
G0 F8100 X115.02 Y73.16
G1 F1620 X161.111 Y119.25 E461.40739
G0 F8100 X161.111 Y118.685
G1 F1620 X115.586 Y73.16 E463.54875
G0 F8100 X116.152 Y73.16
G1 F1620 X161.111 Y118.119 E465.66348
G0 F8100 X161.111 Y117.553
G1 F1620 X116.717 Y73.16 E467.75161
G0 F8100 X117.283 Y73.16
G1 F1620 X161.11 Y116.987 E469.8131
G0 F8100 X161.11 Y116.421
G1 F1620 X117.849 Y73.16 E471.84797
G0 F8100 X118.414 Y73.16
G1 F1620 X161.11 Y115.855 E473.85623
G0 F8100 X161.11 Y115.29
G1 F1620 X118.98 Y73.16 E475.8379
G0 F8100 X119.546 Y73.16
G1 F1620 X161.11 Y114.724 E477.79294
G0 F8100 X161.11 Y114.158
G1 F1620 X120.111 Y73.16 E479.72138
G0 F8100 X120.677 Y73.16
G1 F1620 X161.11 Y113.593 E481.62323
G0 F8100 X161.11 Y113.027
G1 F1620 X121.243 Y73.16 E483.49845
G0 F8100 X121.809 Y73.16
G1 F1620 X161.11 Y112.461 E485.34705
G0 F8100 X161.11 Y111.896
G1 F1620 X122.374 Y73.16 E487.16907
G0 F8100 X122.94 Y73.16
G1 F1620 X161.11 Y111.33 E488.96447
G0 F8100 X161.11 Y110.764
G1 F1620 X123.506 Y73.16 E490.73325
G0 F8100 X124.071 Y73.16
G1 F1620 X161.11 Y110.199 E492.47545
G0 F8100 X161.11 Y109.633
G1 F1620 X124.637 Y73.16 E494.19103
G0 F8100 X125.203 Y73.16
G1 F1620 X161.11 Y109.067 E495.87998
G0 F8100 X161.11 Y108.502
G1 F1620 X125.768 Y73.16 E497.54236
G0 F8100 X126.334 Y73.16
G1 F1620 X161.11 Y107.936 E499.17812
G0 F8100 X161.11 Y107.37
G1 F1620 X126.9 Y73.16 E500.78725
G0 F8100 X127.465 Y73.16
G1 F1620 X161.11 Y106.804 E502.36979
G0 F8100 X161.11 Y106.239
G1 F1620 X128.031 Y73.16 E503.92572
G0 F8100 X128.597 Y73.16
G1 F1620 X161.11 Y105.673 E505.45503
G0 F8100 X161.11 Y105.107
G1 F1620 X129.162 Y73.16 E506.95775
G0 F8100 X129.728 Y73.16
